X: 44
T:General Graham
M:4/4
L:1/8
C:Edward Simpson
R:Strathspey
K:F
B|"F"A2 F>c A/B/c F>A|"Gm"B>GA>F "C"E/F/G C>B,|"F"A,>CF>_E "Bb"D<FB,>B|"
F
"A>F"C"G>=E "F"F/F/F F:||A|"F"F<ff>_e "Bb"dA|"G"G<gg>f "C"=e/f/g c>e
|"
F"f>cf>e "Dm"d>B"Gm"G>B|"F"A/B/c "C"C>E "F"F2 FA|"F"F<ff>_e "Bb"dA|"
G"G<gg>f "C"=e/f/g c>e|"F"f>cf>e "Dm"d>B"Gm"G>b|"F"a>f"C"c>e "F"f/f/f f|
|
